X:1
T:Plutost que je le dighe
T:Horatio Vecchi
T:Source : La Veglie di Siena---Venetia---Ang.Gardano---1604. Editor : André Vierendeels (02/04/17).
T:Notes : Original clefs : G2, G2, F3 Editorial accidentals above the staff "Imitatione del Francese" See also the italian version (translation) "Prima che la cagione" (Vecchi)
T:Plutost que je le dighe
T:©
T:©
T:©
T:©
C:Horatio Vecchi
Z:©
%%score [ 1 2 3 ]
L:1/8
Q:1/4=102
M:2/2
K:C
V:1 treble nm="Soprano 1" snm="S 1"
V:2 treble nm="Soprano 2" snm="S 2"
V:3 bass nm="Bass" snm="B"
V:1
 z8 | z2 d2 e2 f2 | g2 e2 d4 | c4 z2 e2 | d3 e c2 c2 | decd B4 | d2 e2 c2 B2 | A2 c4 B2 | %8
w: |Plu- tost que|ie le di-|ghe la|cau- se de ma|mort, _ _ _ _|que ces- te me-|la- di- *|
 c2 G4 A2- | AG G4 ^F2 | GABG A2 B2 | c8 :: e6 de | c2 A2 z2 d2- | d2 GA B2 G2 | c2 A4 B2 | %16
w: e, ra- dou|_ _ _ ble|son _ _ _ _ ef-|fortz,|il faut mou-|ri- re, e|_ re- mou- ri- re|soubs l'a- mou-|
 c2 d2 e2 dc | B8 | z2 G2 B2 G2 | A2 B2 c2 d2 | B6 G2 | A2 B2 c2 G2 | B2 c2 d4 | z2 d2 f2 d2 | %24
w: rous em- pi- * *|re,|ung vrai a-|mant doit con- stant-|mant, ung|vrai a- mant doit|con- stant- mant,|ung vrai a-|
 e2 f2 g2 e2 | d4 e2 f2 | g3 a f2 e2- | e2 c2 d3 e | c8 :| %29
w: mant doit con- stant-|mant en- du-|rer _ _ son|_ mar- ti- *|re.|
V:2
 c4 d2 e2 | f2 d2 c3 d | B2 c4 B2 | c2 G2 c4 | B2 G4 A2 | BcAB ^G4 | z4 z2 g2 | a2 g2 f2 f2 | %8
w: Plu- tost que|ie le di- *||ghe la cau-|se de ma|mort, _ _ _ _|que|ces- te ma- la|
 e4 e2 e2 | d3 e d3 e | B2 e2 c2 d2 | e8 :: G6 GG | A2 F2 z2 f2- | f2 ec d2 B2 | z2 c2 d2 f2 | %16
w: di- e, ra-|dou- * * *|* ble son ef-|fortz,|il faut mou-|ri- re, e|_ re- mou- ri- re|sous l'a- mou-|
 e2 d2 c4 | d2 G2 B2 G2 | BABc d2 d2 | f2 d2 e2 f2 | g2 fe d2 e2 | d4 z2 c2 | d2 e2 f2 d2- | %23
w: rous em- pi-|re, ung vrai a-|mant, _ _ _ _ ung|vrai a- mant doit|con- stant- * * *|tant, ung|vrai a- mant doit|
 d2 B2 c2 B2 | z2 A2 BG c2- | c2 B2 c4 | B2 c2 d2 c2 | B2 c4 B2 | c8 :| %29
w: _ con- stan- mant,|doit con- * stant-|* * mant|en- du- rer son|mar- ti- *|re.|
V:3
 z4 G,4 | A,2 B,2 C2 A,2 | G,8 | C,4 z2 C,2 | G,3 F, E,2 F,2 | D,4 E,4 | z2 G,2 A,2 G,2 | %7
w: Plu-|tost que ie le|di-|ghe la|cau- se de _|ma mort,|que ces- te|
 F,2 E,2 D,4 | C,4 C4 | B,3 C A,3 B, | G,2 E,2 F,2 D,2 | C,8 :: C6 B,C |"^b" F,2 F,2 z2 B,2- | %14
w: ma- la- di-|e, ra-|dou- * * *|* ble son ef-|fortz,|il faut mou-|ri- re, e|
 B,2 CA, G,2 G,2 | E,2 F,2 D,4 | C,2 B,,2 A,,4 | G,,8- | G,,8 | z4 z2 D,2 | E,2 F,2 G,2 E,2 | %21
w: _ re- mou- ri- re|sous l'a- mou-|rous em- pi-|re,|_|ung|vrai a- mant doit|
 F,2 G,2 C,D,E,C, | G,4 z2 G,2 | B,2 G,2 A,2 B,2 | C2 A,2 G,4- | G,4 C,2 D,2 | E,4 D,2 A,2 | %27
w: con- stant- * * * *|mant, ung|vrai a- mant doit|con- stant- mant|_ en- du-|rer son mar-|
 E,3 F, G,2 G,,2 | C,8 :| %29
w: ti- * * *|re.|

